app/assets/images/logo_white.svg

<?xml version="1.0" encoding="UTF-8"?>
<svg width="24px" height="25px" viewBox="0 0 24 25" version="1.1" xmlns="http://www.w3.org/2000/svg" xmlns:xlink="http://www.w3.org/1999/xlink">
    <!-- Generator: Sketch 46.2 (44496) - http://www.bohemiancoding.com/sketch -->
    <title>logo_white</title>
    <desc>Created with Sketch.</desc>
    <defs></defs>
    <g id="Brand" stroke="none" stroke-width="1" fill="none" fill-rule="evenodd">
        <g id="Desktop-Copy-3" transform="translate(-331.000000, -98.000000)" fill="#FFFFFF">
            <g id="logo_white" transform="translate(331.000000, 98.000000)">
                <path d="M4.8142999,5.26624124 C1.8703968,6.02318835 0.0153846154,8.44274594 0.0153846154,12.1484853 C0.0153846154,17.6268994 3.6321737,24.1983025 7.65212028,24.1983025 C8.1606619,24.1983025 8.67887708,24.0562122 9.30192624,23.7967393 C9.48543533,23.7203157 9.67106772,23.6366818 9.8996639,23.5291224 C10.7013519,23.1519108 10.9088246,23.0638507 10.8996587,23.0638507 C10.8701043,23.0638507 10.8323031,23.0468278 11.8276394,23.5253188 C12.7388056,23.9633464 13.4409947,24.191368 14.2185083,24.1981663 C18.2771416,24.1983025 21.9205021,17.6377735 21.9205021,12.1484853 L19.817938,12.1484853 C19.817938,16.6570169 16.767091,22.1506182 14.2496241,22.1506182 C13.8573595,22.1472417 13.4069522,22.0009811 12.7582949,21.6891501 C12.7371186,21.67897 12.1060323,21.3665457 11.9315321,21.2879634 C11.5355106,21.1096239 11.2374369,21.0161664 10.8996587,21.0161664 C10.5704133,21.0161664 10.2668295,21.1067713 9.86178975,21.2786871 C9.73367618,21.3330638 9.59888097,21.3944491 9.42273685,21.4775641 C9.36322703,21.5056443 9.06786247,21.6463593 8.98500284,21.6853465 C8.78295204,21.7804158 8.62426355,21.8519105 8.47524323,21.913971 C8.09186907,22.0736297 7.81108572,22.1506182 7.65212028,22.1506182 C5.14765619,22.1506182 2.11794872,16.6458932 2.11794872,12.1484853 C2.11794872,9.36000824 3.34274752,7.76246012 5.35101738,7.24608645 C7.09861169,6.79673862 9.20248754,7.29735346 10.2144016,8.31039799 L10.9679434,9.06478161 L11.7214852,8.31039799 C12.9266935,7.1038432 15.5507556,6.67393169 17.3844188,7.53083056 L18.2940167,5.68468054 C15.9774021,4.60209105 12.9241518,4.92276666 10.966926,6.26151305 C9.33561451,5.15035949 6.91734641,4.72549825 4.8142999,5.26624124 Z" id="Shape" fill-rule="nonzero"></path>
                <polygon id="Path-10-Copy-12" fill-rule="nonzero" points="7.71110587 11.149376 6.19658644 12.5697353 10.9218398 17.3486499 23.944746 6.51191738 22.5789166 4.95511488 11.062188 14.538514"></polygon>
                <path d="M10.8559333,0.92492348 C11.2094069,1.71520265 10.6952635,4.37054067 10.6952635,4.37054067 C10.6952635,4.37054067 8.28521646,2.97964932 7.93174289,2.18937015 C7.57826932,1.39909098 7.93174289,0.482367145 8.73509191,0.13464431 C9.53844093,-0.213078526 10.5024598,0.13464431 10.8559333,0.92492348" id="Shape-Copy-12"></path>
            </g>
        </g>
    </g>
</svg>

<svg width="24" height="25" viewBox="0 0 24 25" xmlns="http://www.w3.org/2000/svg"><title>logo_white</title><g fill="#FFF" fill-rule="evenodd"><path d="M4.814 5.266C1.87 6.023.015 8.443.015 12.148c0 5.479 3.617 12.05 7.637 12.05.509 0 1.027-.142 1.65-.401.183-.077.37-.16.598-.268.801-.377 1.009-.465 1-.465-.03 0-.068-.017.928.461.91.438 1.613.666 2.39.673 4.06 0 7.703-6.56 7.703-12.05h-2.103c0 4.509-3.05 10.003-5.568 10.003-.393-.004-.843-.15-1.492-.462-.02-.01-.652-.322-.826-.401-.396-.178-.695-.272-1.032-.272-.33 0-.633.09-1.038.263-.128.054-.263.115-.44.199l-.437.207c-.202.095-.36.167-.51.229-.383.16-.664.237-.823.237-2.504 0-5.534-5.505-5.534-10.003 0-2.788 1.225-4.386 3.233-4.902 1.748-.45 3.851.051 4.863 1.064l.754.755.753-.755c1.206-1.206 3.83-1.636 5.663-.78l.91-1.845c-2.317-1.083-5.37-.762-7.327.577-1.631-1.112-4.05-1.537-6.153-.996z" fill-rule="nonzero"/><path fill-rule="nonzero" d="M7.711 11.15l-1.514 1.42 4.725 4.779L23.945 6.512l-1.366-1.557-11.517 9.584z"/><path d="M10.856.925c.353.79-.16 3.446-.16 3.446S8.285 2.98 7.931 2.189c-.354-.79 0-1.707.803-2.054.803-.348 1.767 0 2.12.79"/></g></svg>
